X: 28125
T: Mrs Costello
R: waltz
M: 3/4
K: Gmajor
e2|e2 eABd|e2 efge|dBdeBA|G2 E2 E2|
G2 G2 AB|dBedef|gabage|ge d2 BA|A4||
de|ga abag|a2 a2 ae|gega b/a/g|ee e2 zg|
GABG e2|BcdBgf|edBA G2|e2 e2 de|
dBAG A2|A2 A4|BdBedB|A2 GFGA|
GEEDBE|D4 BA|G2 eBdG|BAGE AB|A4||

